!!!OTL: FRISCH AUF ZUM FROEHLICHEN JAGEN ES IST NUN AN DER ZEIT
!!!ARE: Europa, Mitteleuropa, Deutschland
!!!SCT: B0055
!!!YEM: Copyright 1995, estate of Helmut Schaffrath.
**kern
*ICvox
*Ivox
!! Mixed meters:  6/8; 3/8
*M6/8
*k[b-e-]
*B-:
{8f
=1
4b-
8b-
8b-
8a
8b-
=2
*M3/8
8cc
8b-}
{8cc
=3
*M6/8
4dd
8dd
8cc
8b-
8cc
=4
4.b-
4r}
{8f
=5
4b-
8b-
8b-
8a
8b-
=6
*M3/8
8cc
8b-}
{8cc
=7
*M6/8
4dd
8dd
8cc
8b-
8cc
=8
4.b-
4r}
{16dd
16ee-
=9
4ff
8dd
8dd
8cc
8dd
=10
8ee-
4cc
4r}
{8ff
=11
4ee-
8ee-
8dd
8ee-
8dd
=12
2cc
8r}
{8f
=13
4b-
8b-
8b-
8a
8b-
=14
*M3/8
8cc
8b-}
{8cc
=15
*M6/8
4dd
8dd
8cc
8b-
8cc
=16
4.b-
4r}
==
!!!AGN: Kriegs -, Sieges -, Soldaten - Lied
!!!ONB: ESAC (Essen Associative Code) Database: BOEHME
!!!AMT: irregular
!!!AIN: vox
!!!EED: Helmut Schaffrath
!!!EEV: 1.0
*-
